X:1
T:Promoted to Glory
T:Promoted to Glory
T:Herbert Howard Booth
T:Herbert Howard Booth, 1890
T:Public Domain Courtesy of the Cyber Hymnal™
T:Public Domain Courtesy of the Cyber Hymnal™
C:Herbert Howard Booth
Z:Public Domain
Z:Courtesy of the Cyber Hymnal™
%%score ( 1 2 ) ( 3 4 )
L:1/8
Q:1/4=110
M:4/4
K:Eb
V:1 treble 
V:2 treble 
V:3 bass 
V:4 bass 
V:1
 [EB]2 B2 [EB]2 [Ee]2 | [Ed]3 [Ec] [EB]2 [EG]2 | E2 ([B,F][B,G]) [EB]2 [CE][_CF] | G3 (D F) E4 | %4
w: 1.~Sum- moned home, the|call has sound- ed,|Bid- ding~a * sol- dier his|war- fare * cease;|
w: 2.~Once the sword, but|now the scep- ter,|Once the * fight, now the|rest and * fame,|
 [EB]2 [Ee]2 d3 (Ec) | ([Ec]2 [EB])[E=A] [EB]2 [EG]2 | [DF]2 ([FB]>[FB]) [FB][F=A][FB][Ge] | %7
w: And the song of *|angels * re- sound- ed,|Wel- comes~a * war- rior to e-|
w: Brok- en ev- ery *|earth- * ly fet- ter,|Now the * glo- ry for the|
 c3 [DB] z2 x4 | E2 G2 B2 [Ge]2 | [Ge]3 [Fd] [Ec]2 [Ed][Ee] | [Ee]2 [EB][EG] [DF]3 E | z2 [CE] x8 | %12
w: ter- nal|peace. Praise the Lord!|from earth- ly strug- gles|A com- rade has found||
w: cross and|shame; Once the loss|of all for Je- sus,|But now the e- ter-||
 A2 [EG][CA]<[Cc][CF]>[CF] | G2 [E^F][EG]<[DB] E2 x | c2 [=Ac][Bc] c2 [Bd][Ae] | e4 [Bd]4 | %16
w: re- lease. Death has lost its|sting, the grave its vic-|to- ry; Con- flicts and dan-|gers are|
w: nal gain. Tri- als and sor-|row here have found their|mean- ing Mys- ter- ies their|ex- pla-|
 [Be]2 B2 [Ad][Ac]A[AB] | [Ac]2 (de) [EB]2 [EG]2 | [CE]2 [CF][_CA] [B,G]2 [B,F]E | [DF]4 E4 || %20
w: o- ver; See him hon- ored|in the * throne of|glo- ry, Crowned by the hand|of Je-|
w: na- tion; Safe, for- ev- er|in the * sun- light|gleam- ing Of His e- ter-|nal sal-|
"^Refrain" [GB]2 [FB]2 [EB]2 B2 | [F=B]4 [Ec]2 [=Ec]2 | c2 c2 c2 ([Bd][_Ae]) | e4 [Bd]2 [Bd]>[Bd] | %24
w: ho- vah! * *||||
w: va- tion. * *||||
 [Be]2 [EB]2 [DA]2 [EG]>[EG] | [Ed]2 [Ec]2 [EB]2 [DA]>[FA] | [EG]2 [EB]2 [DF]3 E | E6 z |] %28
w: ||||
w: ||||
V:2
 x2 (DF) x4 | x8 | E2 x6 | (B,E) D2 E4 x | x4 E2 E2 x | x8 | x8 | F2 E [DB]4 (CD) x | E2 G2 B2 x2 | %9
 x8 | x7 E | E6 c2 BGC | (DEF) x4 | (E^FE) x3 E2 | (FG) x c2 x3 | (=ABcA) x4 | x2 B2 A x3 | %17
 x2 E2 x4 | x7 E | x4 E4 || x6 (DE) | x8 | (FG) (=AB) c2 x2 | (=ABcA) x4 | x8 | x8 | x7 E | E6 x |] %28
V:3
 [E,G,]2 A,2 [E,G,]2 [G,,B,]2 | B,3 [D,A,] [E,G,]2 [E,B,]2 | %2
w: ~ ~ ~ ~|~ ~ ~ ~|
 [G,B,]2 ([D,A,][E,G,]) (G,B,)[A,,A,][A,,A,] | [B,,G,]2 (B,A,) [E,G,]4 x | %4
w: ~ ~ * ~ * ~ ~|~ ~ * ~|
 [E,G,]2 ([F,A,][G,B,]) A,2 (A,,A,) x | [E,A,]2 [E,G,][E,^F,] [E,G,]2 [E,B,]2 | %6
w: ~ ~ * ~ ~ *|~ ~ ~ ~ ~|
 [F,B,]2 [F,D]>[F,D] [F,D][F,C][F,D][F,B,] | =A,3 (F,, B,) z2 x3 | E,2 G,2 B,2 [E,B,]2 | %9
w: ~ ~ ~ ~ ~ ~ ~|~ ~ *|~ ~ ~ ~|
 [G,=B,]3 [G,B,] [A,C]2 [A,B,][A,C] | [G,B,]2 [E,G,][E,B,] [B,,A,]3 [E,G,] | z2 [C,E,] x8 | %12
w: ~ ~ ~ ~ ~|~ ~ ~ ~ ~||
 B,2 [E,B,][F,A,]<[F,A,][F,A,]>[F,A,] | ([E,B,][D,=B,][C,C])[C,=A,] [=B,,_B,]<[_B,,_A,] [C,G,]2 | %14
w: ~ ~ ~ ~ ~ ~|~ * * ~ ~ ~ ~|
 (=A,B,)[F,C][F,D] [F,E]2 [F,D][F,C] | F4 F4 | [G,E]2 [G,E]2 [G,E][G,E][A,C][A,D] | %17
w: ~ * ~ ~ ~ ~ ~|~ ~|~ ~ ~ ~ ~ ~|
 [G,E]2 (=B,C) [G,E]2 [E,_B,]2 | A,2 [A,,A,][A,,F,] [B,,B,]2 [B,,A,][B,,G,] | [B,,A,]4 [E,G,]4 || %20
w: ~ ~ * ~ ~|~ ~ ~ ~ ~ ~|~ ~|
 [E,B,]2 [A,B,]2 [G,B,]2 ([F,A,][E,G,]) | G,4 [C,G,]2 (CB,) | (=A,B,) (CD) [F,E]2 (DC) | %23
w: ~ ~ Strife and *|sor- row o- *|ver, * The * Lord’s true *|
 F4 [B,F]2 [_A,F]>[A,F] | [G,E]2 [G,E]2 [F,B,]2 [E,B,]>[E,B,] | %25
w: faith- ful sol- dier|Has been called to go|
 [A,,A,]2 A,2 [G,B,]2 [F,B,]>[D,B,] | [E,B,]2 [G,,B,]2 [B,,A,]3 [E,G,] | [E,G,]6 z |] %28
w: from the ranks be- low,|To the con- quering|host|
V:4
 x2 (F,D,) x4 | (A,,B,,C,) x5 | x4 G,,2 x2 | x2 B,,2 x5 | x4 A,2 A,,2 x | x8 | x8 | %7
 F,2 F,,2 ([B,,B,]4 C,D,) | E,2 G,2 B,2 x2 | x8 | x8 | [E,G,]6 C2 B,G,C, | (B,,C,D,) x4 | x8 | %14
 F,2 x6 | (F,G,=A,F,) (B,2 _A,2) | x8 | x2 A,2 x4 | A,2 x6 | x8 || x8 | (D,2 G,,2) C,2 x2 | %22
 F,2 F,2 x F,2 x | (F,G,=A,F,) x4 | x8 | x2 A,2 x4 | x8 | x7 |] %28

